virus-off-outline.svg

<svg fill="currentColor" viewBox="0 0 24 24"><path d="M23 13a1.746 1.746 0 0 1-3.18 1h-1.11c-.11.38-.26.73-.43 1.08l-1.55-1.55c.16-.48.27-.99.27-1.53 0-2.76-2.24-5-5-5-.54 0-1.05.11-1.53.27L8.92 5.72c.65-.31 1.34-.53 2.08-.64v-1.4A1.746 1.746 0 0 1 12 .5a1.746 1.746 0 0 1 1 3.18v1.4c1.19.17 2.27.63 3.19 1.32l1.34-1.34c-.1-.56.06-1.13.47-1.56.35-.33.8-.5 1.25-.5s.9.17 1.25.5c.67.7.67 1.81 0 2.5-.35.33-.8.5-1.25.5-.1 0-.2 0-.31-.03L17.6 7.81A6.86 6.86 0 0 1 19 12h.82A1.746 1.746 0 0 1 23 13m-.89 8.46-1.27 1.27-.74-.73c-.4-.05-.79-.21-1.1-.5-.3-.31-.46-.7-.5-1.1l-2.6-2.61c-.33.21-.68.44-1.05.6.36.29.61.73.65 1.23.07.96-.65 1.8-1.62 1.88h-.13c-.91 0-1.67-.7-1.75-1.62 0-.32.05-.62.18-.88H12c-.93 0-1.81-.18-2.62-.5l-1.07 1.97c.25.49.26 1.09-.02 1.61a1.75 1.75 0 0 1-2.37.71 1.75 1.75 0 0 1-.71-2.37c.29-.53.79-.84 1.34-.92l1.1-2c-.7-.58-1.3-1.28-1.75-2.07l-1.51.41c-.18.52-.61.94-1.18 1.1-.16.06-.31.06-.46.06-.75 0-1.48-.5-1.69-1.29-.251-.94.3-1.9 1.23-2.15.15-.06.31-.06.46-.06.41 0 .81.15 1.12.41l1.31-.35A7.2 7.2 0 0 1 5 12c-.36-.08-.71-.23-1-.5-.67-.7-.67-1.8 0-2.5.35-.33.8-.5 1.25-.5.21 0 .42.04.62.12.1-.18.22-.35.33-.53L1.11 3l1.28-1.27zm-7.66-5.12L7.66 9.55C7.25 10.28 7 11.11 7 12c0 2.76 2.24 5 5 5 .9 0 1.73-.25 2.45-.66M7.19 2.75C6.84 2.26 6.3 2 5.75 2c-.16 0-.32.03-.48.07l2.15 2.15c.14-.49.08-1.03-.23-1.47"/></svg>

<svg  viewBox="0 0 24 24" fill="currentColor"><path  d="M23 13C23 13.97 22.22 14.75 21.25 14.75C20.66 14.75 20.13 14.45 19.82 14H18.71C18.6 14.38 18.45 14.73 18.28 15.08L16.73 13.53C16.89 13.05 17 12.54 17 12C17 9.24 14.76 7 12 7C11.46 7 10.95 7.11 10.47 7.27L8.92 5.72C9.57 5.41 10.26 5.19 11 5.08V3.68C10.55 3.37 10.25 2.84 10.25 2.25C10.25 1.28 11.03 .5 12 .5S13.75 1.28 13.75 2.25C13.75 2.84 13.45 3.37 13 3.68V5.08C14.19 5.25 15.27 5.71 16.19 6.4L17.53 5.06C17.43 4.5 17.59 3.93 18 3.5C18.35 3.17 18.8 3 19.25 3S20.15 3.17 20.5 3.5C21.17 4.2 21.17 5.31 20.5 6C20.15 6.33 19.7 6.5 19.25 6.5C19.15 6.5 19.05 6.5 18.94 6.47L17.6 7.81C18.5 9 19 10.43 19 12H19.82C20.13 11.55 20.66 11.25 21.25 11.25C22.22 11.25 23 12.03 23 13M22.11 21.46L20.84 22.73L20.1 22C19.7 21.95 19.31 21.79 19 21.5C18.7 21.19 18.54 20.8 18.5 20.4L15.9 17.79C15.57 18 15.22 18.23 14.85 18.39C15.21 18.68 15.46 19.12 15.5 19.62C15.57 20.58 14.85 21.42 13.88 21.5H13.75C12.84 21.5 12.08 20.8 12 19.88C12 19.56 12.05 19.26 12.18 19H12C11.07 19 10.19 18.82 9.38 18.5L8.31 20.47C8.56 20.96 8.57 21.56 8.29 22.08C7.97 22.67 7.37 23 6.75 23C6.47 23 6.18 22.93 5.92 22.79C5.07 22.33 4.75 21.27 5.21 20.42C5.5 19.89 6 19.58 6.55 19.5L7.65 17.5C6.95 16.92 6.35 16.22 5.9 15.43L4.39 15.84C4.21 16.36 3.78 16.78 3.21 16.94C3.05 17 2.9 17 2.75 17C2 17 1.27 16.5 1.06 15.71C.809 14.77 1.36 13.81 2.29 13.56C2.44 13.5 2.6 13.5 2.75 13.5C3.16 13.5 3.56 13.65 3.87 13.91L5.18 13.56C5.07 13.06 5 12.54 5 12C4.64 11.92 4.29 11.77 4 11.5C3.33 10.8 3.33 9.7 4 9C4.35 8.67 4.8 8.5 5.25 8.5C5.46 8.5 5.67 8.54 5.87 8.62C5.97 8.44 6.09 8.27 6.2 8.09L1.11 3L2.39 1.73L22.11 21.46M14.45 16.34L7.66 9.55C7.25 10.28 7 11.11 7 12C7 14.76 9.24 17 12 17C12.9 17 13.73 16.75 14.45 16.34M7.19 2.75C6.84 2.26 6.3 2 5.75 2C5.59 2 5.43 2.03 5.27 2.07L7.42 4.22C7.56 3.73 7.5 3.19 7.19 2.75Z"/></svg>
